X: 305680
M: 6/8
L: 1/8
K: C
c3 _B3 | A2A f2e/f/ | gec BAB | d3 c2 H|]
E |\
e2 (3a/g/a d2 (3f/e/f/ | cBc B2e | cBA e2^G | A3 cB"^D.C."A |]


